X:1
T:Nat:ional Lancers' -- Hornpipe
R:hornpipe
C:Harry Carleton
B:Cole's 1000 Fiddle Tunes
M:2/4
L:1/16
K:G
(uef)|gfed "4"edcB|cBAG GFED|B,DGD EGc"4"e|dBGB Adef|
gfed "4"edcB|cBAG GFED|B,DGD EGc"4"e|dcBA G2:|
|:(uga)|bagf gfed|"4"edcB cBAG|GFED B,DGB|Ad^cd efga|
bagf gfed|"4"edcB cBAG|GFED EGc"4"e|dcBA G2:|
